usr/share/icons/biglinux-icons-material/symbolic/actions/xapp-go-history-next-symbolic.svg

<svg width="16" height="16" version="1.1" xmlns="http://www.w3.org/2000/svg">
 <path d="m14.584 5.5a44.122 44.122 0 0 1-2.26 1.334c-0.788 0.43-1.562 0.818-2.322 1.166v-2h-8.002v-1h8v-2a43.07 43.07 0 0 1 2.324 1.18 50.17 50.17 0 0 1 2.26 1.32zm-1.584 8.5h-3v-3h3zm-1-1v-1h-1v1zm-3 1h-3v-3h3zm-1-1v-1h-1v1zm-3 1h-3v-3h3zm-1-1v-1h-1v1z" color="#000000" fill="#dedede" font-family="sans-serif" font-weight="400" overflow="visible" style="font-feature-settings:normal;font-variant-alternates:normal;font-variant-caps:normal;font-variant-ligatures:none;font-variant-numeric:normal;font-variant-position:normal;isolation:auto;mix-blend-mode:normal;shape-padding:0;text-decoration-color:#000000;text-decoration-line:none;text-decoration-style:solid;text-indent:0;text-transform:none" white-space="normal"/>
</svg>

<svg xmlns="http://www.w3.org/2000/svg" width="16" height="16"><path fill="#dedede" d="M14.584 5.5a44.122 44.122 0 0 1-2.26 1.334c-.788.43-1.562.818-2.322 1.166V6H2V5h8V3a43.07 43.07 0 0 1 2.324 1.18 50.17 50.17 0 0 1 2.26 1.32zM13 14h-3v-3h3zm-1-1v-1h-1v1zm-3 1H6v-3h3zm-1-1v-1H7v1zm-3 1H2v-3h3zm-1-1v-1H3v1z" color="#000" font-family="sans-serif" font-weight="400" overflow="visible" style="font-feature-settings:normal;font-variant-alternates:normal;font-variant-caps:normal;font-variant-ligatures:none;font-variant-numeric:normal;font-variant-position:normal;isolation:auto;mix-blend-mode:normal;shape-padding:0;text-decoration-color:#000;text-decoration-line:none;text-decoration-style:solid;text-indent:0;text-transform:none"/></svg>
